X: 4
T: The Girl Of The House
R: jig
M: 6/8
L: 1/8
K: Dmix
|:AG|(3FGAD DAD|A3 GEA|D3 AGE|(3FGAD DAG|
F3 G3|A3 (3Bcde|dcA GEA|D3 D2:|
|:AB|cAA AGF|G3 GFG|AdB cAG|Ad^c d2e|
(3gfed cAG|FDF GEA|dcA GEA|D3 D2:|


Tune 1214	Setting 30026

